packages/icons/general/TelegramRound.svg

<svg width="24" height="24" viewBox="0 0 24 24" xmlns="http://www.w3.org/2000/svg">
<g>
        <circle cx="12" cy="12" r="12" fill="#2D85E9" />
        <path
            d="M9.75704 17.6191L9.97453 14.3334L15.94 8.95818C16.2041 8.71738 15.8857 8.60087 15.5361 8.8106L8.17244 13.4634L4.98773 12.4536C4.30418 12.2594 4.29641 11.7856 5.14308 11.4438L17.5479 6.65897C18.115 6.40264 18.6587 6.79879 18.4412 7.66876L16.3284 17.6191C16.1808 18.3259 15.7536 18.4968 15.1633 18.1706L11.9475 15.7937L10.4017 17.2928C10.2231 17.4715 10.0755 17.6191 9.75704 17.6191Z"
            fill="white"
        />
    </g>
</svg>

<svg xmlns="http://www.w3.org/2000/svg" viewBox="0 0 24 24">
    <circle cx="12" cy="12" r="12" fill="#2D85E9"/>
    <path fill="#fff" d="m9.757 17.62.218-3.287 5.965-5.375c.264-.24-.054-.357-.404-.147l-7.364 4.652-3.184-1.01c-.684-.194-.692-.667.155-1.01L17.548 6.66c.567-.256 1.11.14.893 1.01l-2.113 9.95c-.147.707-.574.878-1.165.552l-3.216-2.377-1.545 1.499c-.179.178-.326.326-.645.326Z"/>
</svg>
